X: 34
T: Missa Ecce ancilla domini / Gloria
N: Derived from Ock1006b-Missa_Ecce_ancilla_domini-Gloria.krn
C: Johannes Ockeghem
%%abc-version 2.0
%%abcx-abcm2ps-target-version 5.9.1 (29 Sep 2008)
%%abc-creator hum2abc beta
%%abcx-conversion-date 2019/02/17 07:26:14
%%abc-edited-by Jesse Rodin
%%abc-edited-by Will Watson 12/09/2012
%%abcx-initial-encoding-date 2015/12/06/ (text)
%%humdrum-veritas 4155927202
%%humdrum-veritas-data 285894110
%%linebreak <none>
%%barnumbers 0
L: 1/4
M: 3/1
Q: 1/2=120
%%staves [1 2 3 4]
V: 1 clef=treble
V: 2 clef=treble-8
V: 3 clef=treble-8
V: 4 clef=bass
K: C
[V:1] G8G4 | 
[V:2] G6A2B4 | 
[V:3] z12 | 
[V:4] z12 | 
[V:1] G6A4GF | 
[V:2] c12 | 
[V:3] z12 | 
[V:4] z12 | 
[V:1] E4G3FD4 | 
[V:2] c6d4cB | 
[V:3] z12 | 
[V:4] z12 | 
[V:1] C4z4G4 | 
[V:2] A4c3BG4 | 
[V:3] z12 | 
[V:4] z12 | 
[V:1] A4B2c3BG2 | 
[V:2] F4z4c4 | 
[V:3] z12 | 
[V:4] z12 | 
[V:1] F2A2D2E4C2 | 
[V:2] d4B2c2A3F | 
[V:3] z12 | 
[V:4] z12 | 
[V:1] B,2C2G,2B,2A,4 | 
[V:2] G2C4G4^F2 | 
[V:3] z12 | 
[V:4] z12 | 
[V:1] G,4z4D4 | 
[V:2] G12 | 
[V:3] z12 | 
[V:4] z12 | 
[V:1] E4D2B,3CD2 | 
[V:2] z4d4e2d2- | 
[V:3] z12 | 
[V:4] z12 | 
[V:1] G,2D2E2D2G3F | 
[V:2] d2B2c2d2G2d2- | 
[V:3] z12 | 
[V:4] z12 | 
[V:1] A3GG2E2F4 | 
[V:2] dcd2B2c2A4 | 
[V:3] z12 | 
[V:4] z12 | 
[V:1] G4A6GF | 
[V:2] G2E2F8 | 
[V:3] z12 | 
[V:4] z12 | 
[V:1] E2D4G2F2G2 | 
[V:2] G3AB2c3AB2 | 
[V:3] z12 | 
[V:4] z12 | 
[V:1] A2F2E4D4 | 
[V:2] A2d4^c2d2G2 | 
[V:3] z12 | 
[V:4] z12 | 
[V:1] z12 | 
[V:2] A2F2E4D4 | 
[V:3] z12 | 
[V:4] z4z2C,2D,2B,,2 | 
[V:1] z12 | 
[V:2] z2C2D2E2F4 | 
[V:3] z12 | 
[V:4] A,,4G,,4D,4 | 
[V:1] z12 | 
[V:2] G2A3Bc2d4 | 
[V:3] z12 | 
[V:4] E,2D,F,2G,E,2D,2F,2 | 
[V:1] z12 | 
[V:2] B2cde2dd2BA2 | 
[V:3] z12 | 
[V:4] G,2A,2G,3D,G,2^F,2 | 
[V:1] z12 | 
[V:2] G2FA2FE2D2z2 | 
[V:3] z12 | 
[V:4] G,2z2D,2C,2B,,D,2B,, | 
[V:1] z12 | 
[V:2] C2D2E2F3GA2 | 
[V:3] z12 | 
[V:4] A,,2G,,2C,2D,2F,3E, | 
[V:1] z12 | 
[V:2] B2c3BA2G2B2 | 
[V:3] z12 | 
[V:4] D,2C,2F,4E,2G,2 | 
[V:1] z12 | 
[V:2] c2d2G2F2G2E2 | 
[V:3] z12 | 
[V:4] C,2B,,2C,2A,,2G,,4 | 
[V:1] z12 | 
[V:2] D2A3GG4^F2 | 
[V:3] z12 | 
[V:4] D,2C,B,,G,,2B,,2A,,4 | 
[V:1] z4z4G4 | 
[V:2] G12 | 
[V:3] d12- | 
[V:4] G,,12 | 
[V:1] F4A6G2 | 
[V:2] D8F4 | 
[V:3] d8c4 | 
[V:4] z12 | 
[V:1] E4D4G4 | 
[V:2] G3AB8 | 
[V:3] B4d8 | 
[V:4] G,12- | 
[V:1] B4A6G2 | 
[V:2] G4D4A4 | 
[V:3] d12 | 
[V:4] G,4F,8 | 
[V:1] G4z4B4 | 
[V:2] z2B4G2G3F | 
[V:3] e8d4- | 
[V:4] E,4G,8 | 
[V:1] A3GA3GE4 | 
[V:2] D4z2F4G2 | 
[V:3] d4c8 | 
[V:4] z4A,8 | 
[V:1] D2F2G2A4F2 | 
[V:2] A2_B4AGF4 | 
[V:3] d4d8 | 
[V:4] D,12 | 
[V:1] E2D2E2D4B,2 | 
[V:2] G2d2c2B2d4 | 
[V:3] G12 | 
[V:4] C,2B,,3A,,B,,4G,,2 | 
[V:1] A,8z4 | 
[V:2] z2d4cBA4 | 
[V:3] F12 | 
[V:4] D,12- | 
[V:1] A4G2F4ED | 
[V:2] d6c2c2A2 | 
[V:3] A12 | 
[V:4] D,4F,8 | 
[V:1] E3FG2A4F2 | 
[V:2] G4z4A4 | 
[V:3] c12 | 
[V:4] C,8F,4 | 
[V:1] G2F2D2E3CB,2 | 
[V:2] G2A4B2G4 | 
[V:3] z12 | 
[V:4] E,2F,4G,2E,4 | 
[V:1] A,4A4G2A2 | 
[V:2] E2F4C4F2 | 
[V:3] c12 | 
[V:4] A,,4z4z4 | 
[V:1] GFE2A2A4^G2 | 
[V:2] G2A4D2E4 | 
[V:3] B2c4d2B4 | 
[V:4] z12 | 
[V:1] A4F6ED | 
[V:2] F4D4F3G | 
[V:3] A12 | 
[V:4] z4z4D,4 | 
[V:1] C4D2C2F4 | 
[V:2] A6B2c4 | 
[V:3] z4z4A4 | 
[V:4] F,12 | 
[V:1] E4z2E2D2E2- | 
[V:2] A2G4A2B2c2- | 
[V:3] c8G4- | 
[V:4] C,8z2C,2- | 
[V:1] ECD2E2C2z2F2 | 
[V:2] cAB2G2c3AB2 | 
[V:3] G4z2G4F2 | 
[V:4] C,2B,,2C,4D,4 | 
[V:1] E2G4F2G3F | 
[V:2] c8z2c2- | 
[V:3] G4A4G4 | 
[V:4] C,6A,,2B,,2C,2- | 
[V:1] EDD4C2D2E2- | 
[V:2] c2B2A4B4 | 
[V:3] z2G3EF2z2G2- | 
[V:4] C,B,,G,,2A,,4G,,4 | 
[V:1] E2D3B,C2D2B,2 | 
[V:2] A4G3EF2G2- | 
[V:3] GFD2E4D4 | 
[V:4] z4z2C,2B,,2G,,2 | 
[V:1] A,4B,4z4 | 
[V:2] G2F2G3AB2c2- | 
[V:3] z4D4G3A | 
[V:4] D,4G,,4G,,2C,2- | 
[V:1] z12 | 
[V:2] cBG2F2A4D2 | 
[V:3] B2c3BAGF2G2 | 
[V:4] C,D,E,2F,3E,D,C,B,,2 | 
[V:1] z12 | 
[V:2] E2F4G4z2 | 
[V:3] A4B2G4c2- | 
[V:4] C,2D,4E,2C,4 | 
[V:1] z12 | 
[V:2] z2A4G2F4 | 
[V:3] cBc2d4B2A2- | 
[V:4] F,3E,F,2G,2D,4 | 
[V:1] z12 | 
[V:2] A4G2E4F2 | 
[V:3] A2c4G3F/G/A2 | 
[V:4] F,4C,3D,E,2D,2 | 
[V:1] z12 | 
[V:2] G3FD2E2C4 | 
[V:3] GE2DG2E2^F3E | 
[V:4] G,,2B,,4C,2A,,4 | 
[V:1] D4G6A2 | 
[V:2] D8G4 | 
[V:3] G4z4D4 | 
[V:4] G,,12 | 
[V:1] B4c4B2G2- | 
[V:2] z2E4F2G3F | 
[V:3] G6A2B4 | 
[V:4] z12 | 
[V:1] GAF2E2F2G2A2- | 
[V:2] D4C3DE2F2- | 
[V:3] B4c6A2 | 
[V:4] z12 | 
[V:1] AFE2D2G4^F2 | 
[V:2] FEC2D2E2D4 | 
[V:3] A4F2G2A4 | 
[V:4] z12 | 
[V:1] G3FD8 | 
[V:2] d4z2B4AB | 
[V:3] G12 | 
[V:4] z4z4G,,4 | 
[V:1] E6D2C2B,2 | 
[V:2] c6B2G4 | 
[V:3] z12 | 
[V:4] C,6D,2E,4 | 
[V:1] B,4z2D2C2F2- | 
[V:2] G4A6F2- | 
[V:3] z12 | 
[V:4] E,4F,6D,2 | 
[V:1] FED4E2F2D2 | 
[V:2] F2A2G2c4B2 | 
[V:3] z12 | 
[V:4] D,4B,,2C,2D,4 | 
[V:1] E6C2D4 | 
[V:2] c8B4 | 
[V:3] z12 | 
[V:4] C,8G,,4 | 
[V:1] E12 | 
[V:2] A4G4c4 | 
[V:3] z4z4G4 | 
[V:4] C,12 | 
[V:1] z12 | 
[V:2] d4e8 | 
[V:3] G8c4 | 
[V:4] B,,4C,8 | 
[V:1] z4E8 | 
[V:2] d4z2G4FG | 
[V:3] B4c8 | 
[V:4] D,4E,8 | 
[V:1] F4G2A4B2 | 
[V:2] A4_B2A3FG2 | 
[V:3] d12 | 
[V:4] D,8B,,4 | 
[V:1] c2A2B2G4FG | 
[V:2] A4D6E2 | 
[V:3] c4B8 | 
[V:4] A,,4G,,8 | 
[V:1] A4z2F2G2A2- | 
[V:2] F4E2D2E4 | 
[V:3] A8c4- | 
[V:4] D,4C,2D,2C,2A,,2- | 
[V:1] A2GFE2D2z2G2 | 
[V:2] e2d2c2B2c4 | 
[V:3] c2B2G8 | 
[V:4] A,,2B,,2C,2G,,2C,2E,2 | 
[V:1] F3GA2_B2G3E | 
[V:2] d8B2c2 | 
[V:3] A6G6 | 
[V:4] D,3E,F,2G,4C,2 | 
[V:1] D2E2F2D2E2G2- | 
[V:2] d2c2A2B2c2C2- | 
[V:3] G4F3EG4- | 
[V:4] B,,2C,2D,4C,3B,, | 
[V:1] GAB2c4B4 | 
[V:2] C2D2E2F2D2d2- | 
[V:3] G4A4G4 | 
[V:4] A,,G,,G,,4^F,,2G,,4 | 
[V:1] A2B4AGF2G2 | 
[V:2] d2B4c2d4 | 
[V:3] z2F2G4A2B2 | 
[V:4] D,4E,4D,2G,,2 | 
[V:1] E2D4G3E^F2 | 
[V:2] G3FD2C2z2B,2 | 
[V:3] c2d2G4A2z2 | 
[V:4] C,2B,,3C,E,2D,4 | 
[V:1] G12 ||  
[V:2] D12 ||  
[V:3] G12 ||  
[V:4] G,,12 ||  
[V:1]  [K:C] [K:clef=treble][M:2/1]D8 | 
[V:2]  [K:C] [K:clef=treble-8][M:2/1]G8 | 
[V:3]  [K:C] [K:clef=treble-8][M:2/1]z8 | 
[V:4]  [K:C] [K:clef=bass][M:2/1]z8 | 
[V:1] D4D4 | 
[V:2] G4G4 | 
[V:3] z8 | 
[V:4] z8 | 
[V:1] E4E4- | 
[V:2] C4C4 | 
[V:3] z8 | 
[V:4] z8 | 
[V:1] E2D2D4 | 
[V:2] G6A2 | 
[V:3] z8 | 
[V:4] z8 | 
[V:1] G6F2 | 
[V:2] B2cde2dc | 
[V:3] z8 | 
[V:4] z8 | 
[V:1] E2DCD4 | 
[V:2] B2c4B2 | 
[V:3] z8 | 
[V:4] z8 | 
[V:1] z4C4 | 
[V:2] c8 | 
[V:3] z8 | 
[V:4] z8 | 
[V:1] D4E4 | 
[V:2] z4c4 | 
[V:3] z8 | 
[V:4] z8 | 
[V:1] F4G4 | 
[V:2] d4e4 | 
[V:3] z8 | 
[V:4] z8 | 
[V:1] A4z2A2 | 
[V:2] f4e2c2 | 
[V:3] z8 | 
[V:4] z8 | 
[V:1] G2c4B2 | 
[V:2] e2f2d4- | 
[V:3] z8 | 
[V:4] z8 | 
[V:1] B2A2c3B | 
[V:2] d4c4- | 
[V:3] z8 | 
[V:4] z8 | 
[V:1] G2A3GA2 | 
[V:2] c4F4 | 
[V:3] z8 | 
[V:4] z8 | 
[V:1] G2E2F2G2 | 
[V:2] G2A4B2 | 
[V:3] z8 | 
[V:4] z8 | 
[V:1] E4z2E2- | 
[V:2] c4A4 | 
[V:3] z8 | 
[V:4] z8 | 
[V:1] E2DCE2D2 | 
[V:2] c6B2 | 
[V:3] z8 | 
[V:4] z8 | 
[V:1] E2G4^F2 | 
[V:2] G4A4 | 
[V:3] z8 | 
[V:4] z8 | 
[V:1] G8- | 
[V:2] G4G4 | 
[V:3] z8 | 
[V:4] z8 | 
[V:1] G8 | 
[V:2] c4c4 | 
[V:3] z8 | 
[V:4] z8 | 
[V:1] z4G,4 | 
[V:2] B4B4 | 
[V:3] z8 | 
[V:4] z8 | 
[V:1] C4C4 | 
[V:2] A4A4 | 
[V:3] z8 | 
[V:4] z8 | 
[V:1] B,4B,4 | 
[V:2] E4G4 | 
[V:3] z8 | 
[V:4] z8 | 
[V:1] A,4A,4 | 
[V:2] F8 | 
[V:3] z8 | 
[V:4] z8 | 
[V:1] G,4C4 | 
[V:2] E6F2- | 
[V:3] z8 | 
[V:4] z8 | 
[V:1] D4E4 | 
[V:2] F2EDC4 | 
[V:3] z8 | 
[V:4] z8 | 
[V:1] z4D4- | 
[V:2] G8- | 
[V:3] z8 | 
[V:4] G,,8- | 
[V:1] D2D2D4 | 
[V:2] G4G4 | 
[V:3] z8 | 
[V:4] G,,4G,,4 | 
[V:1] B,4C4 | 
[V:2] G4A4 | 
[V:3] z8 | 
[V:4] G,,4C,4 | 
[V:1] C4B,4 | 
[V:2] A4G4 | 
[V:3] z8 | 
[V:4] C,4G,,4 | 
[V:1] B,4A,4 | 
[V:2] E4F4- | 
[V:3] z8 | 
[V:4] G,,4D,4- | 
[V:1] D6C2 | 
[V:2] F2G2A4 | 
[V:3] z8 | 
[V:4] D,2E,2F,4 | 
[V:1] D4E4 | 
[V:2] B4c4 | 
[V:3] z8 | 
[V:4] D,4C,2A,,2 | 
[V:1] z2E4F2 | 
[V:2] B2G3FD2 | 
[V:3] z8 | 
[V:4] G,,2C,4B,,2 | 
[V:1] E2C2B,3G, | 
[V:2] C4z2E2 | 
[V:3] z8 | 
[V:4] C,2E,2D,2G,2 | 
[V:1] A,2G,2C2B,2 | 
[V:2] D3EF2G2- | 
[V:3] z8 | 
[V:4] z2G,,2A,,2G,,2 | 
[V:1] E2D2F2E2 | 
[V:2] GAB2A2c2 | 
[V:3] z8 | 
[V:4] C,2B,,2D,2C,2 | 
[V:1] G2C3DE2- | 
[V:2] B2G2A2G2 | 
[V:3] z8 | 
[V:4] E,3D,F,2E,2 | 
[V:1] EDCB,A,2G,2 | 
[V:2] E4F2G2- | 
[V:3] z8 | 
[V:4] G,2C,3D,E,2- | 
[V:1] C3DEFG2 | 
[V:2] G2A4B2 | 
[V:3] z8 | 
[V:4] E,D,C,B,,A,,2G,,2 | 
[V:1] z2C4B,2 | 
[V:2] c2A4G2- | 
[V:3] z8 | 
[V:4] C,3D,E,F,G,2 | 
[V:1] E2D2G,2A,2 | 
[V:2] G2G3EF2 | 
[V:3] z8 | 
[V:4] C,2B,,2E,2D,2 | 
[V:1] G,2C3B,B,A, | 
[V:2] G2C2D4 | 
[V:3] z8 | 
[V:4] G,,2A,,2G,,4 | 
[V:1] C8 | 
[V:2] C8 | 
[V:3] z8 | 
[V:4] G,8 | 
[V:1] z8 | 
[V:2] G4G4- | 
[V:3] z8 | 
[V:4] E,8 | 
[V:1] z8 | 
[V:2] G2FED4 | 
[V:3] z8 | 
[V:4] F,8 | 
[V:1] z8 | 
[V:2] C4D4 | 
[V:3] G8 | 
[V:4] G,4G,,4 | 
[V:1] z8 | 
[V:2] C4A,4- | 
[V:3] E8 | 
[V:4] C,4C,4- | 
[V:1] z8 | 
[V:2] A,2B,2C4 | 
[V:3] F8 | 
[V:4] C,2B,,2A,,4 | 
[V:1] z8 | 
[V:2] D6E2 | 
[V:3] G8 | 
[V:4] G,,8 | 
[V:1] z8 | 
[V:2] F3GA2_B2- | 
[V:3] A6G2- | 
[V:4] D,4C,2_B,,2- | 
[V:1] z8 | 
[V:2] B2A2_B3G | 
[V:3] G2F2G4 | 
[V:4] B,,G,,A,,2G,,4 | 
[V:1] z8 | 
[V:2] A8 | 
[V:3] D8 | 
[V:4] z4D,4 | 
[V:1] z8 | 
[V:2] z8 | 
[V:3] z4D4 | 
[V:4] E,4F,4 | 
[V:1] z8 | 
[V:2] z8 | 
[V:3] E4F4 | 
[V:4] G,4A,4 | 
[V:1] z8 | 
[V:2] z8 | 
[V:3] G4A4 | 
[V:4] G,2E,4F,2 | 
[V:1] z8 | 
[V:2] z8 | 
[V:3] G2E4F2 | 
[V:4] G,2C,2D,4 | 
[V:1] E8 | 
[V:2] z8 | 
[V:3] G2A2G2c2- | 
[V:4] C,2A,,3B,,C,2 | 
[V:1] E2D2F4 | 
[V:2] z8 | 
[V:3] c2A2B2A2 | 
[V:4] E,2F,2D,4 | 
[V:1] E4G4- | 
[V:2] G2A2G2c2- | 
[V:3] c8 | 
[V:4] C,8 | 
[V:1] G2FED4 | 
[V:2] c2B2B2A2 | 
[V:3] G8 | 
[V:4] z8 | 
[V:1] C4G4 | 
[V:2] c8 | 
[V:3] z8 | 
[V:4] C,8 | 
[V:1] A4G4- | 
[V:2] A4B4 | 
[V:3] z8 | 
[V:4] F,4E,4 | 
[V:1] G4c4 | 
[V:2] c6A2 | 
[V:3] c8 | 
[V:4] C,8 | 
[V:1] B4G4 | 
[V:2] G4c4 | 
[V:3] e8 | 
[V:4] z8 | 
[V:1] A8 | 
[V:2] z8 | 
[V:3] d8 | 
[V:4] z4F,4 | 
[V:1] G8 | 
[V:2] B4c4 | 
[V:3] e8 | 
[V:4] E,4C,4 | 
[V:1] z4F4 | 
[V:2] A4d4 | 
[V:3] z8 | 
[V:4] D,4B,,4 | 
[V:1] E4C4 | 
[V:2] z4c4 | 
[V:3] z8 | 
[V:4] C,8 | 
[V:1] D4B,4 | 
[V:2] B4G4 | 
[V:3] z8 | 
[V:4] G,8 | 
[V:1] C4G4 | 
[V:2] A4G4 | 
[V:3] z8 | 
[V:4] F,4E,4 | 
[V:1] A8 | 
[V:2] c8- | 
[V:3] e8- | 
[V:4] C,4A,,4 | 
[V:1] G4c4 | 
[V:2] c8 | 
[V:3] e8 | 
[V:4] C,8 | 
[V:1] B2B4A2 | 
[V:2] G8- | 
[V:3] d8 | 
[V:4] z4G,,4 | 
[V:1] c6BA | 
[V:2] G8 | 
[V:3] c4e4- | 
[V:4] C,6D,2 | 
[V:1] G4A4 | 
[V:2] c8 | 
[V:3] e4A4 | 
[V:4] E,4F,4 | 
[V:1] G2F4ED | 
[V:2] d8 | 
[V:3] B8 | 
[V:4] D,8 | 
[V:1] E4z4 | 
[V:2] A4c4- | 
[V:3] c8 | 
[V:4] z4A,4- | 
[V:1] E4E4- | 
[V:2] c4B4 | 
[V:3] z8 | 
[V:4] A,4G,4 | 
[V:1] E4C4 | 
[V:2] G4A4 | 
[V:3] z8 | 
[V:4] E,4F,4 | 
[V:1] D4F4 | 
[V:2] F8 | 
[V:3] z8 | 
[V:4] D,8 | 
[V:1] E6DC | 
[V:2] G4z4 | 
[V:3] z4e4- | 
[V:4] C,4A,,4 | 
[V:1] B,6C2 | 
[V:2] G8 | 
[V:3] e4d4 | 
[V:4] G,,8 | 
[V:1] D4E4 | 
[V:2] F4G4 | 
[V:3] B4c4 | 
[V:4] D,4C,4 | 
[V:1] C4D4 | 
[V:2] z4A4 | 
[V:3] A8 | 
[V:4] F,8 | 
[V:1] E4G4 | 
[V:2] B2c4B2 | 
[V:3] z8 | 
[V:4] E,8 | 
[V:1] F6ED | 
[V:2] d6c2 | 
[V:3] z8 | 
[V:4] D,4F,4- | 
[V:1] C4E4- | 
[V:2] A4G4 | 
[V:3] c8- | 
[V:4] F,4E,4 | 
[V:1] E4G4- | 
[V:2] E6F2 | 
[V:3] c8 | 
[V:4] C,8 | 
[V:1] G2FED4 | 
[V:2] G8 | 
[V:3] B8 | 
[V:4] z8 | 
[V:1] F8 | 
[V:2] D8 | 
[V:3] A8 | 
[V:4] z8 | 
[V:1] A8 | 
[V:2] z8 | 
[V:3] z4c4- | 
[V:4] F,8 | 
[V:1] A4A4 | 
[V:2] z8 | 
[V:3] c4c4 | 
[V:4] F,6F,2 | 
[V:1] G4G4- | 
[V:2] z8 | 
[V:3] B8 | 
[V:4] G,4E,4- | 
[V:1] G2FED4 | 
[V:2] z8 | 
[V:3] G8 | 
[V:4] E,2D,C,B,,4 | 
[V:1] F4E4- | 
[V:2] z8 | 
[V:3] A8 | 
[V:4] A,,6B,,2 | 
[V:1] E2C2C4- | 
[V:2] z8 | 
[V:3] G4G4- | 
[V:4] C,4E,4 | 
[V:1] C4B,4 | 
[V:2] z8 | 
[V:3] G4F4 | 
[V:4] D,8 | 
[V:1] C8- | 
[V:2] z8 | 
[V:3] G4A2c2- | 
[V:4] C,8 | 
[V:1] C8 | 
[V:2] G4A4 | 
[V:3] c2B2A4 | 
[V:4] E,4F,4 | 
[V:1] z4F4 | 
[V:2] B8 | 
[V:3] G4d4 | 
[V:4] G,2E,2D,4 | 
[V:1] G2E2D4 | 
[V:2] c4B4 | 
[V:3] e2c2d2B2 | 
[V:4] C,4G,4 | 
[V:1] C4G4 | 
[V:2] z2A2B2G2 | 
[V:3] c4B2c2- | 
[V:4] A,4G,2E,2 | 
[V:1] A4G2E2 | 
[V:2] z2D2d4- | 
[V:3] c2d2B4 | 
[V:4] F,4G,4 | 
[V:1] F3GABc2- | 
[V:2] d2d4e2 | 
[V:3] A4G2A2 | 
[V:4] D,3C,B,,2A,,2 | 
[V:1] c2A2B4 | 
[V:2] f6d2- | 
[V:3] c3BG2FE | 
[V:4] F,,4G,,4 | 
[V:1] G2A3GFE | 
[V:2] d2e2c2A2 | 
[V:3] D2C2E2F2 | 
[V:4] B,,2A,,2C,2D,2 | 
[V:1] D3EDC/B,/A,2 | 
[V:2] B2G2z2D2- | 
[V:3] G2G4F2 | 
[V:4] B,,3G,,D,4 | 
[V:1] G,2z2D2C2 | 
[V:2] D2C2D2E2 | 
[V:3] G2F2G2A2 | 
[V:4] G,,2A,,2G,,2C,2 | 
[V:1] D2E2D2G2 | 
[V:2] D2G2F2G2 | 
[V:3] G2c2B2c2 | 
[V:4] B,,2C,2D,2C,2 | 
[V:1] F2G2A2G2 | 
[V:2] A2G2c2B2 | 
[V:3] d2c3BG2 | 
[V:4] F,2E,2F,2G,2 | 
[V:1] c3BG2A2- | 
[V:2] c2d2e2e2- | 
[V:3] A4B2c2- | 
[V:4] F,4E,2C,2- | 
[V:1] A2G4^F2 | 
[V:2] edc2d4 | 
[V:3] cBG2A4 | 
[V:4] C,D,E,2D,4 | 
[V:1] G8 |]  
[V:2] d8 |]  
[V:3] G8 |]  
[V:4] G,,8 |]  



